src/logos/logo-fr.svg

<svg height="78" viewBox="0 0 693 78" width="693" xmlns="http://www.w3.org/2000/svg"><g fill="none" fill-rule="evenodd" transform="translate(0 14)"><path d="m200.1.7h-18.3c-15.2 0-27.5 12.3-27.5 27.5 0 7.9 3.4 15.4 9.3 20.7l-6.1 14.4 15.1-9.1c2.9 1.1 6 1.6 9.2 1.6h18.3c15.2-.3 27.3-12.8 27-28-.3-14.9-12.2-26.8-27-27.1zm.1 45h-18.3c-7.9 0-15.9-6.2-17.4-14-2.2-11.2 6.3-21 17.2-21h18.3c7.9 0 15.9 6.2 17.4 14 2.1 11.2-6.4 21-17.2 21z" fill="#d8352a"/><g fill="#383838" fill-rule="nonzero"><path d="m138.1 16.2c-.7-1.1-1.5-2-2.4-2.8-2.1-1.6-4.6-2.5-7.2-2.5-2.2-.1-4.4.4-6.3 1.4-1.7.9-3.1 2.2-4.2 3.9s-1.9 3.5-2.3 5.5c-.5 2.1-.7 4.2-.7 6.4 0 2.1.2 4.1.7 6.1.5 1.9 1.3 3.7 2.4 5.3s2.5 2.9 4.2 3.8c1.9 1 4.1 1.5 6.3 1.4 2.9.2 5.8-1 7.9-3.1 2-2.3 3.2-5.1 3.5-8.1h10.6c-.2 2.9-1 5.8-2.2 8.5-1.1 2.4-2.7 4.6-4.6 6.4s-4.2 3.2-6.7 4.1c-2.7 1-5.6 1.4-8.5 1.4-3.5.1-7.1-.6-10.3-2-2.9-1.3-5.6-3.1-7.7-5.5s-3.8-5.2-4.8-8.2c-1.1-3.3-1.7-6.7-1.7-10.2s.5-7 1.7-10.4c1.1-3.1 2.7-5.9 4.8-8.4 2.1-2.4 4.8-4.3 7.7-5.6 5.8-2.4 12.2-2.7 18.1-.8 2.4.8 4.6 1.9 6.6 3.5 1.9 1.5 3.5 3.5 4.7 5.6 1.3 2.4 2.1 5 2.4 7.7h-10.6c-.3-1.1-.7-2.3-1.4-3.4z"/><path d="m243.5 2.9 20.9 33.5h.1v-33.5h10.3v50h-11l-20.8-33.5h-.1v33.5h-10.2v-50z"/><path d="m294.6 52.9-16.2-50h11.3l11.1 35.1h.1l11.3-35.1h11.3l-16.5 50z"/><path d="m364.4 2.9v9.2h-26.4v10.7h24.2v8.5h-24.2v12.2h27v9.2h-38v-50z"/><path d="m395.6 2.9c2.1 0 4.1.3 6.1 1.1 1.7.7 3.3 1.7 4.6 3 1.3 1.2 2.3 2.7 2.9 4.4.7 1.7 1 3.5 1 5.3.1 2.7-.6 5.3-1.9 7.6-1.4 2.3-3.5 4-6.1 4.9v.1c1.2.3 2.4.9 3.4 1.7.9.8 1.6 1.7 2.2 2.7.6 1.1 1 2.3 1.2 3.5.3 1.2.4 2.5.5 3.8 0 .8.1 1.7.1 2.8s.1 2.2.2 3.3.3 2.1.6 3.2c.2.9.6 1.8 1.1 2.6h-11c-.7-1.8-1-3.7-1.1-5.7-.1-2.2-.4-4.3-.6-6.3-.2-2.1-1-4.1-2.4-5.7-1.2-1.2-3.2-1.8-6-1.8h-11v19.5h-11v-50zm-3.9 22.6c2.5 0 4.4-.6 5.7-1.7s1.9-2.9 1.9-5.5c0-2.4-.6-4.2-1.9-5.3s-3.2-1.6-5.7-1.6h-12v14.1z"/><path d="m425 40.6c.6 1.1 1.4 2.1 2.4 2.8 1.1.8 2.3 1.3 3.6 1.6 1.4.4 2.8.5 4.2.5 1.1 0 2.1-.1 3.1-.2 1.1-.2 2.2-.5 3.1-1 1-.4 1.8-1.1 2.5-1.9.7-.9 1-2 1-3.1 0-1.2-.4-2.4-1.3-3.3-1-.9-2.1-1.6-3.4-2.1-1.5-.6-3.1-1.1-4.8-1.5-1.8-.4-3.6-.9-5.4-1.4-1.9-.5-3.7-1-5.5-1.7-1.7-.6-3.3-1.5-4.8-2.6-3.1-2.3-4.8-6-4.7-9.9-.1-2.3.5-4.6 1.6-6.7 1.1-1.9 2.5-3.5 4.3-4.7 1.8-1.3 3.9-2.2 6-2.8 2.2-.6 4.4-.9 6.7-.9 2.5 0 5.1.3 7.5.9 2.3.5 4.5 1.5 6.4 2.8s3.4 3 4.5 5c1.2 2.3 1.7 4.8 1.6 7.4h-10.6c0-1.3-.4-2.6-.9-3.7-.5-.9-1.2-1.7-2.1-2.3s-1.9-1-3-1.2c-1.2-.2-2.5-.4-3.8-.4-.9 0-1.8.1-2.7.3s-1.7.5-2.4 1-1.3 1-1.8 1.8-.7 1.7-.7 2.7c0 .8.2 1.7.6 2.4.5.8 1.3 1.4 2.2 1.7 1.5.6 3 1.2 4.5 1.5 1.9.5 4.5 1.2 7.6 2 .9.2 2.2.5 3.9 1s3.4 1.3 4.9 2.3c1.7 1.1 3.1 2.6 4.2 4.3 1.3 2.1 1.9 4.5 1.8 6.9 0 2.2-.4 4.4-1.3 6.4s-2.3 3.7-4 5.1c-1.9 1.5-4.1 2.6-6.5 3.3-2.9.8-6 1.2-9 1.2-2.7 0-5.4-.3-8-1-2.5-.6-4.8-1.7-6.9-3.2-2-1.4-3.6-3.3-4.7-5.5-1.2-2.5-1.8-5.2-1.7-8h10.6c.2 1.4.6 2.8 1.2 4.2z"/><path d="m485.7 2.9 18.7 50h-11.4l-3.8-11.1h-18.7l-3.9 11.1h-11.1l18.9-50zm.7 30.7-6.3-18.3h-.1l-6.5 18.3z"/><path d="m495.2 12.1v-9.2h41v9.2h-15v40.7h-11v-40.7z"/><path d="m551.4 2.9v50h-11v-50z"/><path d="m556.6 17.7c1.1-3.1 2.7-5.9 4.8-8.4 2.1-2.4 4.8-4.3 7.7-5.6 6.6-2.7 14.1-2.7 20.7 0 2.9 1.3 5.6 3.2 7.7 5.6s3.8 5.3 4.8 8.4c1.1 3.3 1.7 6.9 1.6 10.4 0 3.5-.5 6.9-1.7 10.2-1.1 3-2.7 5.8-4.8 8.2s-4.8 4.2-7.7 5.5c-6.6 2.7-14 2.7-20.7 0-2.9-1.3-5.6-3.1-7.7-5.5s-3.8-5.2-4.8-8.2c-1.1-3.3-1.7-6.7-1.7-10.2s.6-7 1.8-10.4zm10 16.5c.5 1.9 1.3 3.7 2.4 5.3s2.5 2.9 4.2 3.8c4 1.9 8.6 1.9 12.6 0 1.7-.9 3.1-2.2 4.2-3.8s1.9-3.4 2.3-5.3c.5-2 .7-4.1.7-6.1 0-2.1-.2-4.3-.7-6.4-.4-2-1.2-3.8-2.3-5.5-1.1-1.6-2.5-2.9-4.2-3.9-4-1.9-8.6-1.9-12.6 0-1.7.9-3.1 2.2-4.2 3.9s-1.9 3.5-2.3 5.5c-.5 2.1-.7 4.2-.7 6.4-.1 2.1.1 4.1.6 6.1z"/><path d="m618.3 2.9 20.9 33.5h.1v-33.5h10.3v50h-11l-20.8-33.5h-.1v33.5h-10.3v-50z"/><path d="m11 2.8v40.7h24.3v9.2h-35.3v-50z"/><path d="m69 2.8 18.7 50h-11.5l-3.8-11.2h-18.6l-3.9 11.1h-11.1l18.9-50zm.6 30.6-6.3-18.3h-.1l-6.6 18.3z"/></g></g></svg>

<?xml version="1.0" encoding="UTF-8"?>
<svg width="693px" height="78px" viewBox="0 0 693 78" version="1.1" xmlns="http://www.w3.org/2000/svg" xmlns:xlink="http://www.w3.org/1999/xlink">
    <!-- Generator: Sketch 55.1 (78136) - https://sketchapp.com -->
    <title>logo-fr</title>
    <desc>Created with Sketch.</desc>
    <g id="logo-fr" stroke="none" stroke-width="1" fill="none" fill-rule="evenodd">
        <g id="TC_Horizontal-FRA" transform="translate(0.000000, 14.000000)">
            <path d="M200.1,0.7 L181.8,0.7 C166.6,0.7 154.3,13 154.3,28.2 C154.3,36.1 157.7,43.6 163.6,48.9 L157.5,63.3 L172.6,54.2 C175.5,55.3 178.6,55.8 181.8,55.8 L200.1,55.8 C215.3,55.5 227.4,43 227.1,27.8 C226.8,12.9 214.9,1 200.1,0.7 L200.1,0.7 Z M200.2,45.7 L181.9,45.7 C174,45.7 166,39.5 164.5,31.7 C162.3,20.5 170.8,10.7 181.7,10.7 L200,10.7 C207.9,10.7 215.9,16.9 217.4,24.7 C219.5,35.9 211,45.7 200.2,45.7 Z" id="Shape" fill="#D8352A"></path>
            <path d="M138.1,16.2 C137.4,15.1 136.6,14.2 135.7,13.4 C133.6,11.8 131.1,10.9 128.5,10.9 C126.3,10.8 124.1,11.3 122.2,12.3 C120.5,13.2 119.1,14.5 118,16.2 C116.9,17.9 116.1,19.7 115.7,21.7 C115.2,23.8 115,25.9 115,28.1 C115,30.2 115.2,32.2 115.7,34.2 C116.2,36.1 117,37.9 118.1,39.5 C119.2,41.1 120.6,42.4 122.3,43.3 C124.2,44.3 126.4,44.8 128.6,44.7 C131.5,44.9 134.4,43.7 136.5,41.6 C138.5,39.3 139.7,36.5 140,33.5 L150.6,33.5 C150.4,36.4 149.6,39.3 148.4,42 C147.3,44.4 145.7,46.6 143.8,48.4 C141.9,50.2 139.6,51.6 137.1,52.5 C134.4,53.5 131.5,53.9 128.6,53.9 C125.1,54 121.5,53.3 118.3,51.9 C115.4,50.6 112.7,48.8 110.6,46.4 C108.5,44 106.8,41.2 105.8,38.2 C104.7,34.9 104.1,31.5 104.1,28 C104.1,24.5 104.6,21 105.8,17.6 C106.9,14.5 108.5,11.7 110.6,9.2 C112.7,6.8 115.4,4.9 118.3,3.6 C124.1,1.2 130.5,0.9 136.4,2.8 C138.8,3.6 141,4.7 143,6.3 C144.9,7.8 146.5,9.8 147.7,11.9 C149,14.3 149.8,16.9 150.1,19.6 L139.5,19.6 C139.2,18.5 138.8,17.3 138.1,16.2 Z" id="Path" fill="#383838" fill-rule="nonzero"></path>
            <polygon id="Path" fill="#383838" fill-rule="nonzero" points="243.5 2.9 264.4 36.4 264.5 36.4 264.5 2.9 274.8 2.9 274.8 52.9 263.8 52.9 243 19.4 242.9 19.4 242.9 52.9 232.7 52.9 232.7 2.9"></polygon>
            <polygon id="Path" fill="#383838" fill-rule="nonzero" points="294.6 52.9 278.4 2.9 289.7 2.9 300.8 38 300.9 38 312.2 2.9 323.5 2.9 307 52.9"></polygon>
            <polygon id="Path" fill="#383838" fill-rule="nonzero" points="364.4 2.9 364.4 12.1 338 12.1 338 22.8 362.2 22.8 362.2 31.3 338 31.3 338 43.5 365 43.5 365 52.7 327 52.7 327 2.7"></polygon>
            <path d="M395.6,2.9 C397.7,2.9 399.7,3.2 401.7,4 C403.4,4.7 405,5.7 406.3,7 C407.6,8.2 408.6,9.7 409.2,11.4 C409.9,13.1 410.2,14.9 410.2,16.7 C410.3,19.4 409.6,22 408.3,24.3 C406.9,26.6 404.8,28.3 402.2,29.2 L402.2,29.3 C403.4,29.6 404.6,30.2 405.6,31 C406.5,31.8 407.2,32.7 407.8,33.7 C408.4,34.8 408.8,36 409,37.2 C409.3,38.4 409.4,39.7 409.5,41 C409.5,41.8 409.6,42.7 409.6,43.8 C409.6,44.9 409.7,46 409.8,47.1 C409.9,48.2 410.1,49.2 410.4,50.3 C410.6,51.2 411,52.1 411.5,52.9 L400.5,52.9 C399.8,51.1 399.5,49.2 399.4,47.2 C399.3,45 399,42.9 398.8,40.9 C398.6,38.8 397.8,36.8 396.4,35.2 C395.2,34 393.2,33.4 390.4,33.4 L379.4,33.4 L379.4,52.9 L368.4,52.9 L368.4,2.9 L395.6,2.9 Z M391.7,25.5 C394.2,25.5 396.1,24.9 397.4,23.8 C398.7,22.7 399.3,20.9 399.3,18.3 C399.3,15.9 398.7,14.1 397.4,13 C396.1,11.9 394.2,11.4 391.7,11.4 L379.7,11.4 L379.7,25.5 L391.7,25.5 L391.7,25.5 Z" id="Shape" fill="#383838" fill-rule="nonzero"></path>
            <path d="M425,40.6 C425.6,41.7 426.4,42.7 427.4,43.4 C428.5,44.2 429.7,44.7 431,45 C432.4,45.4 433.8,45.5 435.2,45.5 C436.3,45.5 437.3,45.4 438.3,45.3 C439.4,45.1 440.5,44.8 441.4,44.3 C442.4,43.9 443.2,43.2 443.9,42.4 C444.6,41.5 444.9,40.4 444.9,39.3 C444.9,38.1 444.5,36.9 443.6,36 C442.6,35.1 441.5,34.4 440.2,33.9 C438.7,33.3 437.1,32.8 435.4,32.4 C433.6,32 431.8,31.5 430,31 C428.1,30.5 426.3,30 424.5,29.3 C422.8,28.7 421.2,27.8 419.7,26.7 C416.6,24.4 414.9,20.7 415,16.8 C414.9,14.5 415.5,12.2 416.6,10.1 C417.7,8.2 419.1,6.6 420.9,5.4 C422.7,4.1 424.8,3.2 426.9,2.6 C429.1,2 431.3,1.7 433.6,1.7 C436.1,1.7 438.7,2 441.1,2.6 C443.4,3.1 445.6,4.1 447.5,5.4 C449.4,6.7 450.9,8.4 452,10.4 C453.2,12.7 453.7,15.2 453.6,17.8 L443,17.8 C443,16.5 442.6,15.2 442.1,14.1 C441.6,13.2 440.9,12.4 440,11.8 C439.1,11.2 438.1,10.8 437,10.6 C435.8,10.4 434.5,10.2 433.2,10.2 C432.3,10.2 431.4,10.3 430.5,10.5 C429.6,10.7 428.8,11 428.1,11.5 C427.4,12 426.8,12.5 426.3,13.3 C425.8,14.1 425.6,15 425.6,16 C425.6,16.8 425.8,17.7 426.2,18.4 C426.7,19.2 427.5,19.8 428.4,20.1 C429.9,20.7 431.4,21.3 432.9,21.6 C434.8,22.1 437.4,22.8 440.5,23.6 C441.4,23.8 442.7,24.1 444.4,24.6 C446.1,25.1 447.8,25.9 449.3,26.9 C451,28 452.4,29.5 453.5,31.2 C454.8,33.3 455.4,35.7 455.3,38.1 C455.3,40.3 454.9,42.5 454,44.5 C453.1,46.5 451.7,48.2 450,49.6 C448.1,51.1 445.9,52.2 443.5,52.9 C440.6,53.7 437.5,54.1 434.5,54.1 C431.8,54.1 429.1,53.8 426.5,53.1 C424,52.5 421.7,51.4 419.6,49.9 C417.6,48.5 416,46.6 414.9,44.4 C413.7,41.9 413.1,39.2 413.2,36.4 L423.8,36.4 C424,37.8 424.4,39.2 425,40.6 Z" id="Path" fill="#383838" fill-rule="nonzero"></path>
            <path d="M485.7,2.9 L504.4,52.9 L493,52.9 L489.2,41.8 L470.5,41.8 L466.6,52.9 L455.5,52.9 L474.4,2.9 L485.7,2.9 Z M486.4,33.6 L480.1,15.3 L480,15.3 L473.5,33.6 L486.4,33.6 L486.4,33.6 Z" id="Shape" fill="#383838" fill-rule="nonzero"></path>
            <polygon id="Path" fill="#383838" fill-rule="nonzero" points="495.2 12.1 495.2 2.9 536.2 2.9 536.2 12.1 521.2 12.1 521.2 52.8 510.2 52.8 510.2 12.1"></polygon>
            <polygon id="Path" fill="#383838" fill-rule="nonzero" points="551.4 2.9 551.4 52.9 540.4 52.9 540.4 2.9"></polygon>
            <path d="M556.6,17.7 C557.7,14.6 559.3,11.8 561.4,9.3 C563.5,6.9 566.2,5 569.1,3.7 C575.7,1 583.2,1 589.8,3.7 C592.7,5 595.4,6.9 597.5,9.3 C599.6,11.7 601.3,14.6 602.3,17.7 C603.4,21 604,24.6 603.9,28.1 C603.9,31.6 603.4,35 602.2,38.3 C601.1,41.3 599.5,44.1 597.4,46.5 C595.3,48.9 592.6,50.7 589.7,52 C583.1,54.7 575.7,54.7 569,52 C566.1,50.7 563.4,48.9 561.3,46.5 C559.2,44.1 557.5,41.3 556.5,38.3 C555.4,35 554.8,31.6 554.8,28.1 C554.8,24.6 555.4,21.1 556.6,17.7 Z M566.6,34.2 C567.1,36.1 567.9,37.9 569,39.5 C570.1,41.1 571.5,42.4 573.2,43.3 C577.2,45.2 581.8,45.2 585.8,43.3 C587.5,42.4 588.9,41.1 590,39.5 C591.1,37.9 591.9,36.1 592.3,34.2 C592.8,32.2 593,30.1 593,28.1 C593,26 592.8,23.8 592.3,21.7 C591.9,19.7 591.1,17.9 590,16.2 C588.9,14.6 587.5,13.3 585.8,12.3 C581.8,10.4 577.2,10.4 573.2,12.3 C571.5,13.2 570.1,14.5 569,16.2 C567.9,17.9 567.1,19.7 566.7,21.7 C566.2,23.8 566,25.9 566,28.1 C565.9,30.2 566.1,32.2 566.6,34.2 L566.6,34.2 Z" id="Shape" fill="#383838" fill-rule="nonzero"></path>
            <polygon id="Path" fill="#383838" fill-rule="nonzero" points="618.3 2.9 639.2 36.4 639.3 36.4 639.3 2.9 649.6 2.9 649.6 52.9 638.6 52.9 617.8 19.4 617.7 19.4 617.7 52.9 607.4 52.9 607.4 2.9"></polygon>
            <polygon id="Path" fill="#383838" fill-rule="nonzero" points="11 2.8 11 43.5 35.3 43.5 35.3 52.7 0 52.7 0 2.7"></polygon>
            <path d="M69,2.8 L87.7,52.8 L76.2,52.8 L72.4,41.6 L53.8,41.6 L49.9,52.7 L38.8,52.7 L57.7,2.7 L69,2.8 Z M69.6,33.4 L63.3,15.1 L63.2,15.1 L56.6,33.4 L69.6,33.4 L69.6,33.4 Z" id="Shape" fill="#383838" fill-rule="nonzero"></path>
        </g>
    </g>
</svg>
